ui_kit/lib/assets/icons/settings.svg

<svg width="24" height="24" viewBox="0 0 24 24" fill="none" xmlns="http://www.w3.org/2000/svg">
<path fill-rule="evenodd" clip-rule="evenodd" d="M12.0218 21H12.3818C13.0364 21 13.65 20.7464 14.1245 20.28C14.5909 19.8136 14.8445 19.2 14.8445 18.5455V18.39C14.8445 18.2427 14.8773 18.1036 14.9509 17.9809C15.0245 17.8582 15.1227 17.7518 15.2536 17.6782L15.6055 17.4736C15.8591 17.3345 16.1536 17.3182 16.4482 17.49L16.5464 17.5391C17.1027 17.8582 17.7818 17.9482 18.4036 17.7845C19.0418 17.6209 19.5655 17.2118 19.9009 16.6391L20.0727 16.3282C20.4 15.7636 20.49 15.1009 20.3182 14.4709C20.1464 13.8409 19.7373 13.3091 19.1482 12.9655L19.05 12.9164C18.9191 12.8427 18.8209 12.7364 18.7473 12.6136C18.6818 12.4827 18.6409 12.3436 18.6409 12.1964V11.7873C18.6327 11.6482 18.6736 11.5009 18.7473 11.3782C18.8209 11.2555 18.9191 11.1573 19.0582 11.0755L19.1809 10.9936C19.7455 10.6664 20.1464 10.1345 20.3182 9.50455C20.49 8.87455 20.4 8.21182 20.0727 7.64727L19.8927 7.33636C19.5655 6.77182 19.0336 6.37091 18.4036 6.19909C17.7736 6.02727 17.1027 6.11727 16.5627 6.42818L16.4155 6.51C16.1618 6.64909 15.8427 6.64909 15.5973 6.51L15.2455 6.30545C15.1145 6.24 15.0164 6.13364 14.9427 6.01091C14.8773 5.88818 14.8364 5.74091 14.8364 5.60182V5.45455C14.8364 4.8 14.5827 4.18636 14.1164 3.72C13.65 3.25364 13.0364 3 12.3818 3H12.0218C11.3673 3 10.7455 3.25364 10.2873 3.72C9.82091 4.18636 9.56727 4.8 9.56727 5.45455V5.60182C9.56727 5.74091 9.52636 5.88818 9.46091 6.01091C9.38727 6.13364 9.28091 6.24 9.15818 6.31364L8.80636 6.51C8.55273 6.65727 8.25818 6.67364 7.95545 6.50182L7.85727 6.45273C7.29273 6.12545 6.63 6.03545 6 6.20727C5.37818 6.37091 4.83 6.78818 4.51091 7.34455L4.33091 7.65545C4.00364 8.22 3.92182 8.88273 4.08545 9.51273C4.25727 10.1509 4.65818 10.6745 5.19 10.9855L5.35364 11.0918C5.47636 11.1573 5.58273 11.2636 5.64 11.3782C5.70545 11.5009 5.74636 11.64 5.74636 11.7791V12.2045C5.74636 12.3436 5.71364 12.4909 5.64 12.6136C5.56636 12.7445 5.46818 12.8427 5.32909 12.9245L5.22273 12.99C4.65818 13.3173 4.25727 13.8491 4.08545 14.4791C3.91364 15.1173 4.00364 15.7718 4.33091 16.3445L4.51909 16.6473C4.83818 17.2118 5.38636 17.6209 6.00818 17.7927C6.63818 17.9645 7.30091 17.8745 7.84091 17.5636L7.98818 17.4818C8.24182 17.3427 8.56091 17.3427 8.80636 17.4818L9.15818 17.6864C9.28909 17.76 9.38727 17.8664 9.46091 17.9891C9.52636 18.1118 9.56727 18.2591 9.56727 18.3982V18.5455C9.56727 19.2 9.82091 19.8136 10.2873 20.28C10.7536 20.7464 11.3673 21 12.0218 21ZM9.62455 16.0664C9.24818 15.8536 8.83091 15.7391 8.39727 15.7391C7.96364 15.7391 7.53818 15.8536 7.20273 16.0582L7.05545 16.14C6.86727 16.2464 6.64636 16.2791 6.43364 16.2218C6.22091 16.1645 6.04091 16.0255 5.93455 15.8373L5.75455 15.5264C5.64818 15.3382 5.61545 15.1173 5.67273 14.9045C5.73 14.6918 5.86091 14.5118 6.06545 14.3973L6.17182 14.3318C6.54818 14.1191 6.85909 13.8082 7.07182 13.4318C7.29273 13.0555 7.39909 12.63 7.39909 12.2045V11.7791C7.39909 11.3536 7.27636 10.9364 7.06364 10.56C6.85091 10.1836 6.54 9.88091 6.21273 9.69273L6.04909 9.58636C5.86091 9.48 5.72182 9.30818 5.66455 9.09545C5.61545 8.88273 5.64 8.66182 5.74636 8.47364L5.93455 8.16273C6.04091 7.97455 6.22091 7.83545 6.42545 7.78636C6.63818 7.72909 6.85909 7.75364 7.07182 7.87636L7.17 7.92545C7.90636 8.35909 8.87182 8.35909 9.62455 7.92545L9.97636 7.72909C10.3527 7.50818 10.6636 7.19727 10.8764 6.82909C11.0891 6.45273 11.2036 6.03545 11.2036 5.60182V5.45455C11.2036 5.24182 11.2936 5.02909 11.4409 4.87364C11.5964 4.72636 11.8091 4.63636 12.0218 4.63636H12.3818C12.5945 4.63636 12.8073 4.72636 12.9627 4.87364C13.11 5.02909 13.2 5.24182 13.2 5.45455V5.61C13.2 6.03545 13.3145 6.46091 13.5273 6.83727C13.74 7.20545 14.0509 7.51636 14.4191 7.72909L14.7709 7.93364C15.5155 8.36727 16.5055 8.35909 17.2009 7.95L17.3482 7.86818C17.5364 7.76182 17.7655 7.72909 17.97 7.78636C18.1827 7.84364 18.3627 7.97455 18.4691 8.16273L18.6491 8.47364C18.7555 8.66182 18.7882 8.89091 18.7309 9.09545C18.6736 9.3 18.5427 9.48 18.3464 9.59455L18.2318 9.66C17.8555 9.87273 17.5445 10.1836 17.3318 10.56C17.1191 10.9282 17.0045 11.3618 17.0045 11.7873V12.1964C17.0045 12.6218 17.1191 13.0473 17.3318 13.4236C17.5445 13.8 17.8555 14.1109 18.2564 14.34L18.3545 14.3891C18.5427 14.4955 18.6818 14.6836 18.7391 14.8882C18.7882 15.1009 18.7636 15.3218 18.6491 15.5182L18.4773 15.8291C18.3627 16.0173 18.1909 16.1482 17.9782 16.2055C17.7655 16.2627 17.5364 16.2382 17.3318 16.1155L17.2336 16.0664C16.4891 15.6327 15.5236 15.6327 14.7791 16.0664L14.4273 16.2709C14.0509 16.4918 13.74 16.7945 13.5273 17.1709C13.3145 17.5473 13.2 17.9727 13.2 18.3982V18.5455C13.2 18.7664 13.1182 18.9709 12.9627 19.1264C12.8073 19.2818 12.6027 19.3636 12.3818 19.3636H12.0218C11.8009 19.3636 11.5964 19.2818 11.4327 19.1264C11.2773 18.9709 11.1955 18.7664 11.1955 18.5455V18.39C11.1955 17.9564 11.0809 17.5391 10.8682 17.1627C10.6555 16.7945 10.3445 16.4836 9.97636 16.2709L9.62455 16.0664ZM8.92913 12C8.92913 13.8082 10.3937 15.2727 12.2019 15.2727C14.0019 15.2727 15.4746 13.8082 15.4746 12C15.4746 10.1918 14.01 8.72729 12.2019 8.72729C10.3937 8.72729 8.92913 10.1918 8.92913 12ZM10.5655 12C10.5655 11.1 11.3019 10.3637 12.2019 10.3637C13.1019 10.3637 13.8382 11.1 13.8382 12C13.8382 12.9 13.1019 13.6364 12.2019 13.6364C11.3019 13.6364 10.5655 12.9 10.5655 12Z" fill="white"/>
</svg>

<svg xmlns="http://www.w3.org/2000/svg" width="24" height="24" fill="none" viewBox="0 0 24 24"><path fill="#fff" fill-rule="evenodd" d="M12.022 21h.36c.654 0 1.268-.254 1.742-.72a2.43 2.43 0 0 0 .72-1.735v-.155c0-.147.033-.286.107-.41a.826.826 0 0 1 .303-.302l.351-.204a.82.82 0 0 1 .843.016l.098.05a2.503 2.503 0 0 0 1.858.245 2.423 2.423 0 0 0 1.497-1.146l.172-.31a2.419 2.419 0 0 0 .245-1.858 2.493 2.493 0 0 0-1.17-1.505l-.098-.05a.826.826 0 0 1-.303-.302.928.928 0 0 1-.106-.418v-.409a.73.73 0 0 1 .106-.409.85.85 0 0 1 .311-.303l.123-.081a2.46 2.46 0 0 0 1.137-1.49 2.419 2.419 0 0 0-.245-1.857l-.18-.31a2.453 2.453 0 0 0-1.49-1.138 2.432 2.432 0 0 0-1.84.23l-.147.081a.854.854 0 0 1-.819 0l-.351-.205a.75.75 0 0 1-.303-.294.896.896 0 0 1-.107-.41v-.146a2.43 2.43 0 0 0-.72-1.735A2.432 2.432 0 0 0 12.382 3h-.36a2.42 2.42 0 0 0-1.735.72 2.432 2.432 0 0 0-.72 1.735v.147a.89.89 0 0 1-.106.409.893.893 0 0 1-.303.303l-.352.196a.815.815 0 0 1-.85-.008l-.099-.05A2.419 2.419 0 0 0 6 6.208a2.457 2.457 0 0 0-1.49 1.138l-.18.31a2.455 2.455 0 0 0-.245 1.858 2.423 2.423 0 0 0 1.105 1.473l.164.106a.69.69 0 0 1 .286.286.863.863 0 0 1 .106.401v.425c0 .14-.032.287-.106.41a.81.81 0 0 1-.31.31l-.107.066c-.565.327-.966.86-1.138 1.49a2.439 2.439 0 0 0 .246 1.864l.188.303c.32.565.867.974 1.49 1.146.63.172 1.292.082 1.832-.23l.147-.081a.854.854 0 0 1 .818 0l.352.204c.131.074.23.18.303.303.065.123.106.27.106.41v.146c0 .655.254 1.269.72 1.735.467.466 1.08.72 1.735.72Zm-2.397-4.934a2.482 2.482 0 0 0-1.228-.327 2.32 2.32 0 0 0-1.194.32l-.148.081a.823.823 0 0 1-1.12-.303l-.18-.31a.824.824 0 0 1 .31-1.13l.107-.065c.376-.213.687-.524.9-.9a2.42 2.42 0 0 0 .327-1.228v-.425c0-.425-.123-.843-.335-1.219a2.341 2.341 0 0 0-.851-.867l-.164-.107a.8.8 0 0 1-.384-.49.863.863 0 0 1 .081-.622l.189-.311a.782.782 0 0 1 .49-.377.83.83 0 0 1 .647.09l.098.05a2.478 2.478 0 0 0 2.455 0l.351-.197c.377-.22.688-.532.9-.9a2.48 2.48 0 0 0 .328-1.227v-.147a.86.86 0 0 1 .237-.581.86.86 0 0 1 .58-.238h.36a.86.86 0 0 1 .582.238.86.86 0 0 1 .237.58v.156c0 .425.115.85.327 1.227.213.368.524.68.892.892l.352.205c.744.433 1.735.425 2.43.016l.147-.082a.828.828 0 0 1 1.121.295l.18.31c.107.189.14.418.082.622a.832.832 0 0 1-.385.5l-.114.065a2.377 2.377 0 0 0-.9.9 2.483 2.483 0 0 0-.328 1.227v.41c0 .425.115.85.328 1.227.212.376.523.687.924.916l.099.05a.84.84 0 0 1 .384.498.853.853 0 0 1-.09.63l-.172.311a.827.827 0 0 1-.499.377.825.825 0 0 1-.646-.09l-.098-.05a2.478 2.478 0 0 0-2.455 0l-.352.205c-.376.22-.687.523-.9.9a2.505 2.505 0 0 0-.327 1.227v.148a.81.81 0 0 1-.818.818h-.36a.843.843 0 0 1-.59-.238.81.81 0 0 1-.237-.58v-.156c0-.434-.114-.85-.327-1.227a2.453 2.453 0 0 0-.892-.892l-.351-.205ZM8.929 12a3.272 3.272 0 1 0 6.546 0 3.272 3.272 0 1 0-6.546 0Zm1.636 0c0-.9.737-1.636 1.637-1.636s1.636.736 1.636 1.636c0 .9-.736 1.636-1.636 1.636A1.64 1.64 0 0 1 10.566 12Z" clip-rule="evenodd"/></svg>
